icons/svg/music-note-half.svg

﻿<?xml version="1.0" encoding="utf-8"?>
<!DOCTYPE svg PUBLIC "-//W3C//DTD SVG 1.1//EN" "http://www.w3.org/Graphics/SVG/1.1/DTD/svg11.dtd">
<svg xmlns="http://www.w3.org/2000/svg" xmlns:xlink="http://www.w3.org/1999/xlink" version="1.1" baseProfile="full" width="24" height="24" viewBox="0 0 24.00 24.00" enable-background="new 0 0 24.00 24.00" xml:space="preserve">
	<path fill="#000000" fill-opacity="1" stroke-width="1.33333" stroke-linejoin="miter" d="M 12,3L 12,12.2637C 11.5186,12.0912 11.0113,12.002 10.5,12C 8.54347,12 6.89525,13.2561 6.27539,15L 3,15L 3,18L 6.27539,18C 6.89525,19.7439 8.54347,21 10.5,21C 12.4565,21 14.1047,19.7439 14.7246,18L 19,18L 19,15L 15,15L 15,9L 15,6L 15,3L 12,3 Z M 10.5,14.5C 11.6046,14.5 12.5,15.3954 12.5,16.5C 12.5,17.6046 11.6046,18.5 10.5,18.5C 9.39543,18.5 8.5,17.6046 8.5,16.5C 8.5,15.3954 9.39543,14.5 10.5,14.5 Z "/>
</svg>

<svg xmlns="http://www.w3.org/2000/svg" version="1.1" baseProfile="full" width="24" height="24" viewBox="0 0 24.00 24.00" xml:space="preserve"><path fill="#000" fill-opacity="1" stroke-width="1.333" stroke-linejoin="miter" d="M12 3v9.264c-.48-.173-.99-.262-1.5-.264-1.957 0-3.605 1.256-4.225 3H3v3h3.275c.62 1.744 2.268 3 4.225 3 1.957 0 3.605-1.256 4.225-3H19v-3h-4V3h-3zm-1.5 11.5c1.105 0 2 .895 2 2s-.895 2-2 2-2-.895-2-2 .895-2 2-2z"/></svg>
